public/img/CATEGORIES_ICONS/TECH_ICON.svg

<?xml version="1.0" encoding="UTF-8"?>
<svg width="88px" height="122px" viewBox="0 0 88 122" version="1.1" xmlns="http://www.w3.org/2000/svg" xmlns:xlink="http://www.w3.org/1999/xlink">
    <!-- Generator: Sketch 42 (36781) - http://www.bohemiancoding.com/sketch -->
    <title>TECH_ICON</title>
    <desc>Created with Sketch.</desc>
    <defs></defs>
    <g id="Page-1" stroke="none" stroke-width="1" fill="none" fill-rule="evenodd">
        <g id="Home" transform="translate(-527.000000, -1223.000000)">
            <g id="CATEGORIES" transform="translate(122.000000, 1066.000000)">
                <g id="TECH_ICON" transform="translate(405.000000, 156.982000)">
                    <polygon id="Fill-119" fill="#00B1B0" points="0.8663 25.1164 44.1673 0.1164 87.4683 25.1164 87.4683 75.1164 44.1673 100.1164 0.8663 75.1164"></polygon>
                    <polygon id="Fill-120" fill="#00B1B0" points="2.8357 114.6729 0.0417 114.6729 0.0417 113.3409 7.1777 113.3409 7.1777 114.6729 4.3827 114.6729 4.3827 121.8569 2.8357 121.8569"></polygon>
                    <polygon id="Fill-121" fill="#00B1B0" points="8.3088 113.3408 13.4058 113.3408 13.4058 114.6728 9.8558 114.6728 9.8558 116.9038 12.7228 116.9038 12.7228 118.2348 9.8558 118.2348 9.8558 120.5258 13.5978 120.5258 13.5978 121.8568 8.3088 121.8568"></polygon>
                    <path d="M18.9504,113.1973 C21.0254,113.1973 22.0934,114.3603 22.0934,114.3603 L21.3494,115.5113 C21.3494,115.5113 20.3774,114.6123 19.0224,114.6123 C17.2234,114.6123 16.1684,115.9563 16.1684,117.5393 C16.1684,119.1583 17.2594,120.5853 19.0344,120.5853 C20.5094,120.5853 21.5054,119.5063 21.5054,119.5063 L22.3204,120.6213 C22.3204,120.6213 21.1454,122.0003 18.9744,122.0003 C16.3714,122.0003 14.5734,120.0693 14.5734,117.5623 C14.5734,115.0923 16.4444,113.1973 18.9504,113.1973" id="Fill-122" fill="#00B1B0"></path>
                    <polygon id="Fill-123" fill="#00B1B0" points="23.7527 113.3408 25.2997 113.3408 25.2997 116.9508 29.1977 116.9508 29.1977 113.3408 30.7447 113.3408 30.7447 121.8568 29.1977 121.8568 29.1977 118.2818 25.2997 118.2818 25.2997 121.8568 23.7527 121.8568"></polygon>
                    <path d="M32.9084,113.3408 L34.4554,113.3408 L37.6814,118.2588 C38.0054,118.7498 38.3894,119.5778 38.3894,119.5778 L38.4134,119.5778 C38.4134,119.5778 38.3294,118.7618 38.3294,118.2588 L38.3294,113.3408 L39.8644,113.3408 L39.8644,121.8568 L38.3294,121.8568 L35.1034,116.9508 C34.7794,116.4588 34.3954,115.6318 34.3954,115.6318 L34.3714,115.6318 C34.3714,115.6318 34.4554,116.4468 34.4554,116.9508 L34.4554,121.8568 L32.9084,121.8568 L32.9084,113.3408 Z" id="Fill-124" fill="#00B1B0"></path>
                    <path d="M45.8425,120.585 C47.4015,120.585 48.6485,119.29 48.6485,117.539 C48.6485,115.859 47.4015,114.612 45.8425,114.612 C44.2825,114.612 43.0355,115.859 43.0355,117.539 C43.0355,119.29 44.2825,120.585 45.8425,120.585 M45.8425,113.197 C48.3485,113.197 50.2435,115.105 50.2435,117.539 C50.2435,120.046 48.3485,122 45.8425,122 C43.3355,122 41.4405,120.046 41.4405,117.539 C41.4405,115.105 43.3355,113.197 45.8425,113.197" id="Fill-125" fill="#00B1B0"></path>
                    <polygon id="Fill-126" fill="#00B1B0" points="51.8205 113.3408 53.3675 113.3408 53.3675 120.5258 57.0495 120.5258 57.0495 121.8568 51.8205 121.8568"></polygon>
                    <path d="M61.9577,120.585 C63.5177,120.585 64.7647,119.29 64.7647,117.539 C64.7647,115.859 63.5177,114.612 61.9577,114.612 C60.3987,114.612 59.1517,115.859 59.1517,117.539 C59.1517,119.29 60.3987,120.585 61.9577,120.585 M61.9577,113.197 C64.4647,113.197 66.3597,115.105 66.3597,117.539 C66.3597,120.046 64.4647,122 61.9577,122 C59.4517,122 57.5567,120.046 57.5567,117.539 C57.5567,115.105 59.4517,113.197 61.9577,113.197" id="Fill-127" fill="#00B1B0"></path>
                    <path d="M71.7497,113.1973 C73.8367,113.1973 74.9167,114.2763 74.9167,114.2763 L74.1487,115.4273 C74.1487,115.4273 73.2367,114.6123 71.8817,114.6123 C69.9747,114.6123 68.9557,115.9313 68.9557,117.5393 C68.9557,119.3853 70.2147,120.5853 71.8097,120.5853 C73.0937,120.5853 73.9447,119.6973 73.9447,119.6973 L73.9447,118.7023 L72.6377,118.7023 L72.6377,117.3713 L75.3357,117.3713 L75.3357,121.8563 L74.0167,121.8563 L74.0167,121.4483 C74.0167,121.2683 74.0287,121.0893 74.0287,121.0893 L74.0047,121.0893 C74.0047,121.0893 73.1177,122.0003 71.5337,122.0003 C69.2917,122.0003 67.3607,120.2613 67.3607,117.5873 C67.3607,115.1163 69.2197,113.1973 71.7497,113.1973" id="Fill-128" fill="#00B1B0"></path>
                    <path d="M78.7956,118.2939 L75.9646,113.3409 L77.7156,113.3409 L79.0476,115.8479 C79.3236,116.3749 79.5506,116.9989 79.5636,116.9869 L79.5876,116.9869 C79.5876,116.9869 79.8266,116.3749 80.1026,115.8479 L81.4216,113.3409 L83.1726,113.3409 L80.3426,118.2939 L80.3426,121.8569 L78.7956,121.8569 L78.7956,118.2939 Z" id="Fill-129" fill="#00B1B0"></path>
                    <path d="M63.5566,61.5143 C63.5696,60.8313 62.9946,60.2463 62.3066,60.2433 C61.6276,60.2393 61.0256,60.8313 61.0276,61.4983 C61.0306,62.1293 61.6286,62.7413 62.2636,62.7633 C62.9176,62.7863 63.5436,62.1813 63.5566,61.5143 L63.5566,61.5143 Z M56.9046,61.4533 C56.8906,62.1443 57.4446,62.7373 58.1246,62.7573 C58.7696,62.7763 59.4056,62.1573 59.4126,61.5053 C59.4196,60.8463 58.8616,60.2653 58.2016,60.2433 C57.4996,60.2203 56.9196,60.7613 56.9046,61.4533 L56.9046,61.4533 Z M18.6556,32.4743 C18.7916,32.1763 18.8966,31.8583 19.0686,31.5823 C19.5446,30.8143 20.2526,30.3443 21.1486,30.3103 C22.4906,30.2593 23.8366,30.2973 25.2536,30.2973 C24.7186,31.4183 24.8766,32.4383 25.6816,33.4103 C25.4536,33.4503 25.2836,33.4693 25.1176,33.5103 C24.0026,33.7853 23.1936,34.6253 23.1346,35.7773 C23.0636,37.1483 22.8606,38.5923 23.1916,39.8833 C23.6246,41.5713 23.5006,43.2273 23.5176,44.8973 C23.5576,49.0643 23.5286,53.2323 23.5306,57.3993 C23.5316,58.3623 23.9656,58.8013 24.9286,58.8013 C34.1436,58.8033 43.3586,58.8013 52.5736,58.8003 C56.1596,58.8003 59.7466,58.7983 63.3326,58.7983 C64.3906,58.7983 64.8016,58.3853 64.8016,57.3233 C64.8026,52.4253 64.8026,47.5273 64.8116,42.6293 C64.8116,42.3873 64.8566,42.1343 64.9376,41.9063 C65.3496,40.7513 65.3726,39.6073 64.9206,38.4573 C64.8436,38.2633 64.8196,38.0423 64.8046,37.8313 C64.7806,37.5003 64.8086,37.1653 64.7716,36.8363 C64.6846,36.0503 64.4196,35.8053 63.6216,35.7553 C63.2246,35.7303 62.8256,35.7263 62.4266,35.7233 C61.7486,35.7183 61.0696,35.7223 60.3426,35.6793 C61.4806,35.2643 62.4466,34.6733 62.4986,33.3303 C62.5466,32.0863 61.8656,31.1723 60.9326,30.3233 C61.1356,30.3073 61.2716,30.2873 61.4086,30.2873 C63.1686,30.2853 64.9286,30.2843 66.6886,30.2863 C68.2206,30.2883 69.0856,30.9063 69.5946,32.3553 C69.6106,32.3993 69.6506,32.4353 69.6796,32.4743 L69.6796,62.3713 C69.6256,62.4883 69.5646,62.6023 69.5186,62.7213 C69.1376,63.6953 68.4476,64.3063 67.4096,64.4753 C67.0026,64.5423 66.5836,64.5513 66.1696,64.5513 C60.6386,64.5543 55.1086,64.5513 49.5776,64.5493 L48.9316,64.5493 C49.5826,66.1113 50.2496,67.5903 50.8116,69.1083 C51.1266,69.9563 51.4506,70.4603 52.5236,70.4023 C53.7356,70.3383 54.5046,71.5863 54.1196,72.7043 C53.8496,73.4863 53.1696,73.9053 52.1436,73.9053 C46.8286,73.9073 41.5136,73.9073 36.1986,73.9033 C35.9686,73.9033 35.7336,73.8813 35.5076,73.8353 C34.7156,73.6743 34.1356,72.9763 34.1126,72.1753 C34.0896,71.3823 34.6306,70.6333 35.4196,70.4503 C35.7856,70.3653 36.1756,70.3573 36.5536,70.3653 C36.8576,70.3713 37.0256,70.2943 37.1486,69.9903 C37.8306,68.3013 38.5386,66.6213 39.2346,64.9383 C39.2806,64.8263 39.3056,64.7053 39.3506,64.5543 L38.9546,64.5543 C33.2076,64.5533 27.4616,64.5513 21.7146,64.5543 C21.0536,64.5543 20.4306,64.4413 19.8656,64.0753 C19.2346,63.6663 18.9236,63.0353 18.6556,62.3713 L18.6556,32.4743 Z" id="Fill-130" fill="#FEFEFE"></path>
                    <path d="M57.7729,44.8685 C56.6129,44.5455 55.4079,44.3315 54.3059,43.8695 C53.1629,43.3905 52.2099,43.4835 51.0789,43.9675 C45.0639,46.5415 39.0089,49.0235 32.9699,51.5425 C32.0469,51.9275 31.1149,52.2165 30.1329,51.7905 C28.8509,51.2335 28.2029,50.2015 28.1029,48.8415 C28.0069,47.5405 28.5519,46.4995 29.7359,45.9595 C31.7689,45.0315 33.8459,44.1995 35.9099,43.3375 C40.5409,41.4035 45.1769,39.4805 49.8039,37.5335 C50.0319,37.4385 50.2419,37.2005 50.3669,36.9775 C51.0539,35.7515 51.6469,34.4675 52.3989,33.2855 C53.0339,32.2895 54.0469,31.7195 55.2079,31.4545 C55.9339,31.2895 56.6549,31.0905 57.3889,30.9785 C58.7839,30.7675 59.8439,31.3535 60.6109,32.4915 C61.0409,33.1305 60.8699,33.5945 60.1599,33.8935 C59.0919,34.3445 58.0149,34.7765 56.9639,35.2635 C56.1669,35.6325 56.0029,36.0505 56.3049,36.8755 C56.6179,37.7305 56.9669,38.5735 57.3369,39.4055 C57.6389,40.0845 58.2869,40.3005 59.0539,39.9955 C60.0849,39.5845 61.1059,39.1475 62.1309,38.7225 C62.9219,38.3945 63.3649,38.6255 63.5069,39.4725 C63.7429,40.8785 63.3139,42.0515 62.1239,42.8495 C61.0129,43.5945 59.8889,44.3465 58.5489,44.6535 C58.4359,44.6795 58.3239,44.7115 58.2089,44.7215 C58.0769,44.7335 57.9439,44.7245 57.8109,44.7245 C57.7979,44.7725 57.7859,44.8205 57.7729,44.8685" id="Fill-131" fill="#FEFEFE"></path>
                    <path d="M42.049,38.9485 C42.361,37.0225 41.935,35.3475 40.746,33.8975 C39.898,32.8655 38.796,32.2035 37.498,31.8995 C34.881,31.2855 32.161,32.5215 30.871,34.8995 C30.135,36.2565 29.991,37.6965 30.319,39.1925 C30.566,40.3215 31.07,41.0495 32.801,42.7965 C31.907,43.1665 31.01,43.4945 30.151,43.9035 C29.293,44.3135 28.473,44.8035 27.561,45.2985 C27.479,45.2095 27.297,45.0185 27.123,44.8215 C26.421,44.0295 26.428,43.7505 27.18,42.9815 C27.436,42.7205 27.686,42.4505 27.966,42.2185 C28.222,42.0075 28.151,41.8255 28.084,41.5405 C27.847,40.5285 27.239,40.1955 26.265,40.3755 C26.137,40.3985 26,40.3745 25.867,40.3675 C25.064,40.3215 24.785,40.0745 24.761,39.2725 C24.729,38.2275 24.735,37.1805 24.753,36.1345 C24.763,35.5435 25.028,35.2395 25.615,35.1675 C26.14,35.1035 26.674,35.0955 27.204,35.1035 C27.492,35.1075 27.601,35.0055 27.757,34.7565 C28.297,33.8935 28.107,33.3065 27.35,32.6415 C26.323,31.7385 26.371,31.4335 27.316,30.4475 C27.925,29.8125 28.555,29.1965 29.191,28.5885 C29.69,28.1115 30.112,28.0935 30.643,28.5425 C31.034,28.8745 31.37,29.2715 31.761,29.6045 C31.875,29.7025 32.091,29.7005 32.261,29.7065 C32.35,29.7095 32.438,29.6095 32.533,29.5945 C33.467,29.4535 33.565,28.8465 33.533,28.0345 C33.475,26.5525 33.668,26.3795 35.157,26.3355 C36.002,26.3105 36.85,26.3395 37.697,26.3655 C38.428,26.3885 38.737,26.6995 38.775,27.4445 C38.8,27.9255 38.763,28.4095 38.802,28.8885 C38.814,29.0375 38.973,29.1855 39.091,29.3095 C39.153,29.3745 39.286,29.3655 39.362,29.4235 C40.122,29.9965 40.62,29.6325 41.174,29.0345 C42.212,27.9155 42.454,27.9405 43.544,29.0075 C44.125,29.5765 44.696,30.1575 45.263,30.7405 C45.793,31.2855 45.81,31.7255 45.306,32.3055 C45.013,32.6435 44.686,32.9515 44.372,33.2725 C44.303,33.3435 44.155,33.4305 44.168,33.4755 C44.3,33.9505 44.44,34.4255 44.621,34.8835 C44.663,34.9905 44.862,35.0895 44.995,35.0985 C45.541,35.1355 46.091,35.1065 46.635,35.1575 C47.295,35.2185 47.732,35.9115 47.536,36.5405 C47.511,36.6195 47.424,36.7055 47.345,36.7385 C45.607,37.4695 43.865,38.1925 42.049,38.9485" id="Fill-132" fill="#FEFEFE"></path>
                    <path d="M49.2404,35.5392 C48.4694,33.9972 47.9574,33.5812 46.6274,33.4252 C47.3284,32.4592 47.6484,31.4452 47.0394,30.3092 L53.2874,30.3092 C51.1474,31.4222 50.1074,33.3882 49.2404,35.5392" id="Fill-133" fill="#FEFEFE"></path>
                </g>
            </g>
        </g>
    </g>
</svg>

<svg width="88" height="122" viewBox="0 0 88 122" xmlns="http://www.w3.org/2000/svg"><title>TECH_ICON</title><g fill="none" fill-rule="evenodd"><path fill="#00B1B0" d="M.866 25.098l43.301-25 43.301 25v50l-43.3 25-43.302-25zM2.836 114.655H.042v-1.332h7.136v1.332H4.383v7.184H2.836zM8.309 113.323h5.097v1.332h-3.55v2.23h2.867v1.332H9.856v2.29h3.742v1.332h-5.29zM18.95 113.18c2.075 0 3.143 1.162 3.143 1.162l-.744 1.151s-.972-.899-2.327-.899c-1.799 0-2.854 1.344-2.854 2.927 0 1.62 1.091 3.046 2.866 3.046 1.475 0 2.471-1.079 2.471-1.079l.815 1.115s-1.175 1.38-3.346 1.38c-2.603 0-4.4-1.932-4.4-4.439 0-2.47 1.87-4.365 4.376-4.365M23.753 113.323H25.3v3.61h3.898v-3.61h1.547v8.516h-1.547v-3.575H25.3v3.575h-1.547zM32.908 113.323h1.547l3.226 4.918c.324.49.708 1.319.708 1.319h.024s-.084-.816-.084-1.32v-4.917h1.535v8.516H38.33l-3.226-4.906c-.324-.492-.708-1.32-.708-1.32h-.024s.084.816.084 1.32v4.906h-1.547v-8.516zM45.843 120.567c1.558 0 2.805-1.295 2.805-3.046 0-1.68-1.247-2.927-2.806-2.927-1.56 0-2.806 1.247-2.806 2.927 0 1.751 1.246 3.046 2.806 3.046m0-7.388c2.507 0 4.401 1.908 4.401 4.342 0 2.507-1.895 4.461-4.4 4.461-2.508 0-4.403-1.954-4.403-4.461 0-2.434 1.896-4.342 4.403-4.342M51.82 113.323h1.547v7.185h3.683v1.33h-5.23zM61.958 120.567c1.56 0 2.807-1.295 2.807-3.046 0-1.68-1.247-2.927-2.807-2.927-1.56 0-2.806 1.247-2.806 2.927 0 1.751 1.247 3.046 2.806 3.046m0-7.388c2.507 0 4.402 1.908 4.402 4.342 0 2.507-1.895 4.461-4.402 4.461-2.506 0-4.401-1.954-4.401-4.461 0-2.434 1.895-4.342 4.4-4.342M71.75 113.18c2.087 0 3.167 1.078 3.167 1.078l-.768 1.151s-.912-.815-2.267-.815c-1.907 0-2.926 1.32-2.926 2.927 0 1.846 1.259 3.046 2.854 3.046 1.284 0 2.135-.888 2.135-.888v-.995h-1.307v-1.33h2.698v4.484h-1.32v-.408c0-.18.013-.359.013-.359h-.024s-.887.911-2.471.911c-2.242 0-4.173-1.739-4.173-4.413 0-2.47 1.859-4.39 4.389-4.39M78.796 118.276l-2.831-4.953h1.75l1.333 2.507c.276.527.503 1.15.516 1.139h.024s.239-.612.515-1.14l1.319-2.506h1.75l-2.83 4.953v3.563h-1.546v-3.563z"/><path d="M63.557 61.496a1.268 1.268 0 0 0-1.25-1.27c-.68-.005-1.281.587-1.28 1.254.004.631.602 1.243 1.237 1.265.654.023 1.28-.582 1.293-1.249zm-6.652-.06c-.014.69.54 1.283 1.22 1.303.645.02 1.28-.6 1.288-1.252.007-.659-.551-1.24-1.211-1.262a1.244 1.244 0 0 0-1.297 1.21zm-38.25-28.98c.137-.298.242-.616.414-.892.476-.768 1.184-1.238 2.08-1.272 1.342-.05 2.688-.013 4.105-.013-.535 1.121-.377 2.141.428 3.113-.228.04-.398.06-.564.1-1.115.275-1.924 1.115-1.983 2.267-.071 1.371-.274 2.815.057 4.106.433 1.688.309 3.344.326 5.014.04 4.167.01 8.335.013 12.502 0 .963.435 1.402 1.398 1.402 9.215.002 18.43 0 27.645 0l10.759-.003c1.058 0 1.469-.413 1.469-1.475 0-4.898 0-9.796.01-14.694a2.2 2.2 0 0 1 .126-.723c.412-1.155.435-2.299-.017-3.449-.077-.194-.101-.415-.116-.626-.024-.33.004-.666-.033-.995-.087-.786-.352-1.03-1.15-1.08a21.612 21.612 0 0 0-1.195-.033c-.678-.005-1.357 0-2.084-.044 1.138-.415 2.104-1.006 2.156-2.349.048-1.244-.633-2.158-1.566-3.007.203-.016.339-.036.476-.036 1.76-.002 3.52-.003 5.28 0 1.532.001 2.397.62 2.906 2.068.016.044.056.08.085.12v29.896c-.054.117-.115.231-.161.35-.381.974-1.071 1.585-2.11 1.754a7.657 7.657 0 0 1-1.24.076c-5.53.003-11.06 0-16.591-.002h-.646c.65 1.562 1.318 3.041 1.88 4.56.315.847.639 1.351 1.712 1.293 1.212-.064 1.98 1.184 1.596 2.302-.27.782-.95 1.201-1.976 1.201-5.315.002-10.63.002-15.945-.002a3.49 3.49 0 0 1-.691-.068 1.754 1.754 0 0 1-1.395-1.66c-.023-.793.518-1.542 1.307-1.725.366-.085.756-.093 1.134-.085.304.006.472-.07.595-.375.682-1.689 1.39-3.369 2.086-5.052.046-.112.07-.233.116-.384h-.396c-5.747 0-11.493-.003-17.24 0-.661 0-1.284-.113-1.85-.479-.63-.409-.941-1.04-1.21-1.704V32.456z" fill="#FEFEFE"/><path d="M57.773 44.85c-1.16-.323-2.365-.537-3.467-.998-1.143-.48-2.096-.386-3.227.098-6.015 2.573-12.07 5.055-18.11 7.574-.922.386-1.854.675-2.836.248-1.282-.556-1.93-1.588-2.03-2.948-.096-1.301.449-2.343 1.633-2.883 2.033-.928 4.11-1.76 6.174-2.622 4.63-1.934 9.267-3.857 13.894-5.804.228-.095.438-.333.563-.556.687-1.226 1.28-2.51 2.032-3.692.635-.996 1.648-1.566 2.809-1.83.726-.166 1.447-.365 2.18-.477 1.396-.21 2.456.375 3.223 1.514.43.639.259 1.102-.451 1.402-1.068.45-2.145.883-3.196 1.37-.797.368-.961.786-.66 1.611a40.5 40.5 0 0 0 1.033 2.53c.302.68.95.895 1.717.59 1.03-.41 2.052-.847 3.077-1.273.79-.328 1.234-.096 1.376.75.236 1.407-.193 2.58-1.383 3.377-1.111.745-2.235 1.497-3.575 1.804-.113.026-.225.059-.34.069-.132.011-.265.002-.398.002l-.038.144" fill="#FEFEFE"/><path d="M42.049 38.93c.312-1.925-.114-3.6-1.303-5.05-.848-1.033-1.95-1.695-3.248-1.999-2.617-.614-5.337.623-6.627 3-.736 1.358-.88 2.797-.552 4.294.247 1.129.751 1.857 2.482 3.604-.894.37-1.791.697-2.65 1.106-.858.41-1.678.9-2.59 1.395-.082-.089-.264-.28-.438-.477-.702-.791-.695-1.07.057-1.84.256-.26.506-.53.786-.763.256-.21.185-.393.118-.678-.237-1.011-.845-1.344-1.819-1.164-.128.023-.265-.002-.398-.008-.803-.047-1.082-.294-1.106-1.096a65.654 65.654 0 0 1-.008-3.137c.01-.591.275-.895.862-.968.525-.064 1.059-.072 1.589-.064.288.005.397-.098.553-.346.54-.863.35-1.45-.407-2.115-1.027-.904-.979-1.209-.034-2.195a60.867 60.867 0 0 1 1.875-1.858c.499-.478.921-.496 1.452-.047.391.332.727.73 1.118 1.063.114.098.33.096.5.101.089.003.177-.096.272-.111.934-.142 1.032-.749 1-1.56-.058-1.483.135-1.655 1.624-1.7.845-.024 1.693.005 2.54.03.731.023 1.04.334 1.078 1.08.025.48-.012.965.027 1.444.012.149.171.297.289.42.062.066.195.056.271.114.76.573 1.258.21 1.812-.389 1.038-1.118 1.28-1.093 2.37-.026.581.569 1.152 1.15 1.719 1.733.53.544.547.985.043 1.565-.293.338-.62.646-.934.967-.069.07-.217.157-.204.202.132.475.272.95.453 1.408.042.107.241.206.374.215.546.038 1.096.008 1.64.06.66.06 1.097.753.901 1.383a.37.37 0 0 1-.191.197c-1.738.731-3.48 1.455-5.296 2.21M49.24 35.521c-.77-1.542-1.283-1.958-2.613-2.114.701-.966 1.021-1.98.412-3.116h6.248c-2.14 1.113-3.18 3.08-4.047 5.23" fill="#FEFEFE"/></g></svg>
